packages/dnb-ui-lib/assets/icons/question.svg

<svg width="16" height="16" viewBox="0 0 16 16" fill="none" xmlns="http://www.w3.org/2000/svg">
<path fill-rule="evenodd" clip-rule="evenodd" d="M4.35229 5.1004C4.35229 3.04939 5.90168 1.5 7.95269 1.5C10.0037 1.5 11.5531 3.04939 11.5531 5.1004C11.5531 7.15141 10.0037 8.70079 7.95269 8.70079C7.53848 8.70079 7.20269 9.03658 7.20269 9.45079V12.1162C7.20269 12.5304 7.53848 12.8662 7.95269 12.8662C8.36691 12.8662 8.70269 12.5304 8.70269 12.1162V10.1494C11.2089 9.80139 13.0531 7.72428 13.0531 5.1004C13.0531 2.22096 10.8321 0 7.95269 0C5.07325 0 2.85229 2.22096 2.85229 5.1004C2.85229 5.51461 3.18808 5.8504 3.60229 5.8504C4.01651 5.8504 4.35229 5.51461 4.35229 5.1004ZM7.95288 15.9978C8.61088 15.9978 9.04954 15.5591 9.04954 14.9011C9.04954 14.2431 8.61088 13.8044 7.95288 13.8044C7.29488 13.8044 6.85622 14.2431 6.85622 14.9011C6.85622 15.5591 7.29488 15.9978 7.95288 15.9978Z" fill="black"/>
</svg>

<svg width="16" height="16" viewBox="0 0 16 16" fill="none" xmlns="http://www.w3.org/2000/svg"><path fill-rule="evenodd" clip-rule="evenodd" d="M4.352 5.1c0-2.05 1.55-3.6 3.6-3.6 2.052 0 3.601 1.55 3.601 3.6 0 2.051-1.55 3.6-3.6 3.6a.75.75 0 00-.75.75v2.666a.75.75 0 001.5 0V10.15c2.506-.348 4.35-2.425 4.35-5.049 0-2.879-2.22-5.1-5.1-5.1-2.88 0-5.1 2.221-5.1 5.1a.75.75 0 001.5 0zm3.6 10.898c.659 0 1.098-.439 1.098-1.097 0-.658-.44-1.097-1.097-1.097-.658 0-1.097.44-1.097 1.097 0 .658.439 1.097 1.097 1.097z" fill="#000"/></svg>
